X: 10903
T: COTILLION No. 11. tune 3
C:
%R: jig
B: Elias Howe "The Musician's Companion" Part 1 1842 p.90 #3 (and p.91 #1)
S: http://imslp.org/wiki/The_Musician's_Companion_(Howe,_Elias)
Z: 2015 John Chambers <jc:trillian.mit.edu>
M: 6/8
L: 1/8
K: F
% - - - - - - - - - - - - - - - - - - - - - - - - -
(A/B/) |\
c2c cag | f2f f2g | agf edc | c>dc c>AB |\
c2c cag | f2f fga | bgf ede | (gff) f2 H|]
c/A/ |\
F2F FEF | G2G G2A | BGB dcB | (B3 A2)f |\
fac dfB | BdG AcF | GAB cAF | C2C "^D.C."C2 |]
F/G/ |\
A2A GFG | FFF G2A | BcB AcA | GGG c3 |\
fac dfB | BdG AcF | GAB cAF | C2C "^D.C."C2 |]
% - - - - - - - - - - Dance description - - - - - - - - - -
%%begintext align
%% 2 ladies forward and back,
%% cross over,
%% balance 4 and turn,
%% 2 gentlemen forward and back,
%% cross over,
%% forward and back,
%% half promenade to place,
%% sides the same.
%%endtext
%- - - - - - - - - - - - - - - - - - - - - - - - -
%%sep 1 1 300
